X: 19990
T: Jim Keefe's
R: polka
M: 2/4
K: Gmajor
|:B/c/|dg B/c/B/A/|G>B DE/G/|BA- AB/d/|ed B>c|
dg BB/A/|GB D>G|B/c/B/A/ BA|G2- G:|
|:G/A/|BA AB/d/|e>d BA|BA AB/d/|e/f/e/d/ B>c|
dg B>A|GB D>G|B/c/B/A/ BA|G2- G:|

